X:2
T:King George the Third’s March. JClw.02
M:4/4
L:1/8
Q:1/4=120
S:J.Clews MS,Stoke-upon-Tern,Shrops.1832
N:Rather eccentric at times, so the title is probably apt (!).
N:Nice tune though.
A:N. Shropshire
Z:Neil Brookes 2006
K:G
G2B2d2g2|bgG2B2d2|ed cB A2d2|e2g2 fgaf|d2c2BAGA|B2A2G2z2:|!
|:f2g2a2g2|f2e2d2cd|ed ef e2d2|ed efe2fg|ag fe d2d2|!
cB AG cB cd|ed cBA4|d2eg fgaf|d4c4|BA GA B2A2|G4:||

